src/icons/svg/category.svg

<?xml version="1.0" standalone="no"?><!DOCTYPE svg PUBLIC "-//W3C//DTD SVG 1.1//EN" "http://www.w3.org/Graphics/SVG/1.1/DTD/svg11.dtd"><svg t="1585231262257" class="icon" viewBox="0 0 1260 1024" version="1.1" xmlns="http://www.w3.org/2000/svg" p-id="4603" xmlns:xlink="http://www.w3.org/1999/xlink" width="157.5" height="128"><defs><style type="text/css"></style></defs><path d="M994.986952 921.721009 47.230394 921.721009C20.86009 921.721009 0 942.26623 0 968.085512L0 976.980569C0 1001.93396 20.86009 1023.345072 47.230394 1023.345072L994.986952 1023.345072C1021.357254 1023.345072 1042.217345 1001.93396 1042.217345 976.980569L1042.217345 968.085512C1042.217345 942.26623 1021.357254 921.721009 994.986952 921.721009L994.986952 921.721009 994.986952 921.721009ZM562.435267 522.624186C654.219664 699.029705 875.021752 768.5371 1054.969551 678.563201 1234.838632 588.589302 1306.62883 372.037949 1213.978541 195.63243 1122.194144 19.226911 901.392056-51.146375 721.444257 39.772132 541.575176 129.746031 470.650869 346.218667 562.435267 522.624186L562.435267 522.624186 562.435267 522.624186ZM768.753368 128.801423C897.771059 64.725523 1056.780049 114.553588 1123.138752 241.131042 1188.552847 368.495669 1137.622739 523.490076 1008.605048 588.589302 878.642749 653.60981 719.633759 603.703028 654.219664 476.338401 587.939679 349.760947 638.791069 193.900649 768.753368 128.801423L768.753368 128.801423 768.753368 128.801423ZM47.230394 715.953929 582.429467 715.953929C547.95128 686.513651 517.015371 652.665202 491.589676 614.408584L47.230394 614.408584C20.86009 614.408584 0 635.740978 0 660.694369L0 669.589426C0 695.487425 20.86009 715.953929 47.230394 715.953929L47.230394 715.953929 47.230394 715.953929ZM47.230394 412.183783 418.854871 412.183783C417.044373 396.125449 416.178482 380.067115 416.178482 364.008782 416.178482 345.352776 417.044373 328.428553 419.799479 310.55972L47.230394 310.55972C20.86009 310.55972 0 331.104941 0 356.924222L0 365.81928C0 391.638562 20.86009 412.183783 47.230394 412.183783L47.230394 412.183783 47.230394 412.183783ZM47.230394 104.79264 497.021172 104.79264C523.391475 66.457304 555.193273 32.608855 592.426567 3.247294L47.230394 3.247294C20.86009 3.247294 0 24.579689 0 49.53308L0 58.428138C0 84.326136 20.86009 104.79264 47.230394 104.79264L47.230394 104.79264 47.230394 104.79264ZM1254.832832 952.971786 1151.240835 754.289265C1139.433238 732.878153 1112.197045 723.983096 1090.392346 735.554543L1079.529356 740.90732C1057.645939 751.612876 1048.593448 778.298048 1059.535156 800.57505L1163.127152 998.391681C1174.93475 1020.668683 1202.170943 1029.56374 1223.975641 1017.992294L1234.838632 1012.639516C1256.64333 1001.93396 1265.77454 975.248788 1254.832832 952.971786L1254.832832 952.971786Z" p-id="4604"></path></svg>

<svg class="icon" viewBox="0 0 1260 1024" xmlns="http://www.w3.org/2000/svg" width="157.5" height="128"><defs><style/></defs><path d="M994.987 921.721H47.23C20.86 921.721 0 942.266 0 968.086v8.895c0 24.953 20.86 46.364 47.23 46.364h947.757c26.37 0 47.23-21.411 47.23-46.364v-8.895c0-25.82-20.86-46.365-47.23-46.365zM562.435 522.624c91.785 176.406 312.587 245.913 492.535 155.94 179.869-89.975 251.659-306.526 159.009-482.932-91.785-176.405-312.587-246.778-492.535-155.86-179.869 89.974-250.793 306.447-159.009 482.852zm206.318-393.823c129.018-64.075 288.027-14.247 354.386 112.33 65.414 127.365 14.484 282.36-114.534 347.458-129.962 65.02-288.971 15.114-354.385-112.25C587.94 349.76 638.79 193.9 768.753 128.8zM47.23 715.954h535.2c-34.479-29.44-65.415-63.289-90.84-101.545H47.23C20.86 614.409 0 635.74 0 660.694v8.895c0 25.898 20.86 46.365 47.23 46.365zm0-303.77h371.625c-1.81-16.059-2.677-32.117-2.677-48.175 0-18.656.866-35.58 3.621-53.45H47.23C20.86 310.56 0 331.106 0 356.925v8.895c0 25.82 20.86 46.365 47.23 46.365zm0-307.391h449.791c26.37-38.336 58.172-72.184 95.406-101.546H47.23C20.86 3.247 0 24.58 0 49.533v8.895c0 25.898 20.86 46.365 47.23 46.365zm1207.603 848.179L1151.24 754.289c-11.808-21.41-39.044-30.306-60.849-18.734l-10.863 5.352c-21.883 10.706-30.936 37.391-19.994 59.668l103.592 197.817c11.808 22.277 39.044 31.172 60.849 19.6l10.863-5.352c21.804-10.706 30.936-37.391 19.994-59.668z"/></svg>
